src/cards/hearts_8.svg

<svg version="1.1" id="Layer_1" xmlns="http://www.w3.org/2000/svg" xmlns:xlink="http://www.w3.org/1999/xlink" x="0px" y="0px"
	 width="100%" viewBox="0 0 336 496" enable-background="new 0 0 336 496" xml:space="preserve">
<path fill="currentColor" opacity="1.000000" stroke="none" 
	d="
M219.834152,444.572083 
	C208.233139,438.568878 204.551575,427.138062 210.258347,415.719482 
	C211.986084,412.262482 214.370361,409.257843 217.004562,406.460114 
	C225.304306,397.645142 236.206985,391.609222 243.333389,380.845093 
	C250.044739,390.683685 259.629669,396.448212 267.462036,404.087524 
	C272.386719,408.890778 276.760712,414.070618 278.344635,421.073608 
	C280.369537,430.026215 277.293060,438.490997 270.257965,442.904663 
	C262.674225,447.662598 253.370087,446.818970 246.205963,440.725952 
	C245.330856,439.981720 244.448212,439.246399 243.165680,438.167664 
	C236.791199,444.863770 229.272720,447.776276 219.834152,444.572083 
z"/>
<path fill="currentColor" opacity="1.000000" stroke="none" 
	d="
M68.171646,421.721283 
	C70.208611,413.304016 75.443764,407.543365 81.321411,402.261353 
	C88.716248,395.615906 97.098595,390.023712 103.247696,380.888885 
	C111.857910,393.098846 125.198174,399.661407 133.788605,411.199219 
	C140.330978,419.986298 140.832504,430.912384 135.033890,438.544769 
	C128.781036,446.775055 116.166153,448.387726 107.774742,441.980316 
	C106.218918,440.792328 104.821815,439.396454 103.114769,437.887238 
	C95.849823,446.006500 87.233673,448.565979 77.554359,443.346680 
	C69.238190,438.862396 66.717781,431.217255 68.171646,421.721283 
z"/>
<path fill="currentColor" opacity="1.000000" stroke="none" 
	d="
M167.275818,360.582703 
	C157.949585,364.970581 149.363815,363.904480 143.427399,357.872223 
	C137.172379,351.516205 135.905441,342.070801 140.174683,333.318420 
	C142.249741,329.064392 145.410339,325.654083 148.693039,322.305664 
	C156.590881,314.249725 166.746490,308.609344 173.269135,298.161011 
	C180.478455,308.810425 190.931183,314.849304 199.126099,323.296600 
	C205.343399,329.705414 210.185928,336.933685 208.936325,346.333191 
	C207.898605,354.138855 203.586761,359.907654 195.762497,362.379517 
	C188.294998,364.738678 181.652328,363.089417 175.871674,357.847595 
	C175.257217,357.290405 174.642685,356.732941 174.012589,356.193817 
	C173.894989,356.093201 173.702942,356.079651 173.268417,355.931580 
	C171.460205,357.344086 169.523041,358.857300 167.275818,360.582703 
z"/>
<path fill="currentColor" opacity="1.000000" stroke="none" 
	d="
M138.287323,236.160614 
	C141.390915,248.538300 134.661819,256.691711 127.071426,264.176819 
	C119.399368,271.742493 110.002029,277.483948 103.257828,287.001862 
	C95.390381,275.279541 82.835213,269.001434 74.378288,258.434662 
	C69.493454,252.331146 66.427383,245.578766 68.045959,237.646362 
	C71.031998,223.012238 88.361603,217.208054 99.801460,226.851486 
	C100.808823,227.700653 101.810173,228.556976 103.279984,229.805557 
	C109.869774,223.224747 117.612244,220.214676 126.766914,223.421249 
	C132.676788,225.491287 136.386673,229.798492 138.287323,236.160614 
z"/>
<path fill="currentColor" opacity="1.000000" stroke="none" 
	d="
M139.117615,169.446350 
	C136.279373,159.202103 138.439270,151.223785 145.180588,146.106155 
	C151.459778,141.339325 160.664108,140.804977 167.275314,144.989700 
	C169.349121,146.302368 171.169403,148.015549 173.413345,149.788467 
	C177.949722,145.506271 182.839294,142.251495 189.262787,142.151978 
	C203.313446,141.934357 212.513321,155.097809 207.829514,168.858658 
	C205.897095,174.536026 202.173508,178.993378 198.039597,183.158081 
	C190.096024,191.160812 180.083282,196.952286 173.261429,207.118042 
	C166.482834,196.399521 155.674438,190.746094 147.652161,182.124786 
	C144.232422,178.449707 141.024658,174.631363 139.117615,169.446350 
z"/>
<path fill="currentColor" opacity="1.000000" stroke="none" 
	d="
M70.546806,90.174911 
	C63.350395,75.829918 70.841446,62.869236 82.745422,60.098915 
	C89.521233,58.522030 94.337273,60.059254 103.476463,67.199615 
	C107.357491,63.845222 111.365150,60.257042 116.946396,59.745224 
	C124.227051,59.077572 130.590561,61.066525 135.058456,67.030884 
	C139.959717,73.573769 140.356644,80.834221 137.123718,88.267036 
	C134.827408,93.546471 131.069641,97.752037 126.993706,101.735497 
	C119.297760,109.256836 109.721458,114.754776 103.391754,124.570244 
	C96.132149,113.774292 85.180046,107.792122 76.967178,98.895805 
	C74.590874,96.321754 72.360359,93.640633 70.546806,90.174911 
z"/>
<path fill="currentColor" opacity="1.000000" stroke="none" 
	d="
M261.268616,269.292480 
	C254.789627,274.734985 248.084641,279.424652 243.326874,287.181274 
	C236.365906,276.300262 225.486526,270.517273 217.346588,261.807495 
	C212.002106,256.088898 207.653809,249.903473 207.710922,241.654953 
	C207.766678,233.602142 211.295593,227.386841 218.662155,224.105560 
	C225.994736,220.839447 233.236130,221.401688 239.695129,226.744659 
	C240.823776,227.678299 241.629745,229.074982 243.512268,229.403290 
	C246.901276,227.125275 249.868668,223.759918 254.278336,222.847321 
	C262.174805,221.213135 269.339783,222.542664 274.601288,229.014191 
	C280.337219,236.069260 280.421051,243.955429 276.542999,251.936508 
	C273.115814,258.989746 267.360413,264.071716 261.268616,269.292480 
z"/>
<path fill="currentColor" opacity="1.000000" stroke="none" 
	d="
M251.691223,61.233707 
	C261.481720,58.172066 269.489502,60.144241 274.710724,66.636353 
	C280.055145,73.281654 280.573425,82.184143 275.971771,90.529236 
	C272.785553,96.307442 268.140717,100.846031 263.191620,105.106567 
	C256.395020,110.957588 248.971237,116.149681 243.442993,124.429726 
	C235.090866,112.270782 221.768234,105.909157 213.245239,94.521873 
	C206.944214,86.103325 205.890549,76.357742 210.470200,68.824585 
	C216.455811,58.978691 230.028915,56.605450 239.242783,63.812702 
	C240.538620,64.826332 241.753357,65.943619 243.097595,67.091454 
	C245.928329,65.140228 248.632065,63.276527 251.691223,61.233707 
z"/>
<path fill="currentColor" opacity="1.000000" stroke="none" 
	d="
M21.702482,20.799305 
	C27.173849,15.716517 33.451363,15.553111 39.742786,17.129942 
	C47.525974,19.080656 49.814678,26.847977 44.796722,33.109863 
	C44.089230,33.992737 43.362389,34.860115 42.628963,35.753590 
	C43.030972,36.344299 43.217510,36.855789 43.582893,37.119160 
	C48.025883,40.321739 50.479343,44.535427 49.005726,50.009880 
	C47.473709,55.701286 42.756588,57.854679 37.441750,58.924839 
	C33.617332,59.694897 29.842337,59.381348 26.110054,58.289677 
	C16.647615,55.521980 14.256767,46.393177 21.190552,39.351952 
	C21.876472,38.655407 22.809538,38.202236 23.813425,37.507755 
	C19.648657,32.090069 17.632658,26.899239 21.702482,20.799305 
M39.307484,50.771214 
	C40.802883,45.196472 36.580288,43.625500 32.919426,41.693523 
	C29.521229,39.900166 27.520149,41.446674 26.566784,44.677544 
	C25.648542,47.789387 26.122702,50.833138 29.061186,52.594501 
	C32.472626,54.639362 35.988899,54.778950 39.307484,50.771214 
M29.041119,28.275255 
	C30.250156,29.378172 31.357450,30.627369 32.689304,31.553711 
	C35.506729,33.513317 37.426537,32.161186 38.421787,29.420300 
	C39.311836,26.969133 39.084633,24.479876 36.913563,22.630207 
	C35.108238,21.092136 32.966820,20.940147 30.873186,21.858330 
	C28.282101,22.994671 27.863632,25.124058 29.041119,28.275255 
z"/>
<path fill="currentColor" opacity="1.000000" stroke="none" 
	d="
M298.832794,463.847168 
	C295.818848,455.217621 298.464600,449.647888 306.586670,447.273376 
	C311.134644,445.943787 315.843964,445.973083 320.395111,447.186035 
	C324.786804,448.356567 328.297607,450.795532 329.213959,455.699738 
	C330.099854,460.440735 328.476776,463.750824 323.025330,468.182831 
	C325.614990,471.739105 328.358856,475.404572 327.139282,480.271667 
	C326.514404,482.765564 325.235809,484.874847 323.136993,486.430756 
	C317.401062,490.682861 306.218750,490.135223 301.703979,485.381165 
	C297.922882,481.399658 298.568420,477.075867 304.497711,468.976715 
	C302.727905,467.426849 300.871735,465.801361 298.832794,463.847168 
M314.936096,451.491211 
	C314.108551,451.450684 313.272888,451.315796 312.454956,451.386536 
	C309.443787,451.646912 307.169647,453.345337 306.998383,456.238434 
	C306.770538,460.088165 309.826569,461.924957 312.936798,463.406982 
	C314.887909,464.336670 316.863831,465.702881 318.748535,463.421875 
	C320.825806,460.907806 321.392090,458.107880 319.806122,455.107941 
	C318.909760,453.412445 317.411804,452.391510 314.936096,451.491211 
M309.291199,482.441101 
	C312.183441,484.567780 315.246918,484.950134 317.713928,482.143494 
	C319.741547,479.836731 318.522644,477.304199 316.495911,475.606262 
	C314.728088,474.125153 312.657410,471.574677 310.098938,473.631775 
	C307.485443,475.733063 306.265045,478.665802 309.291199,482.441101 
z"/>
<path fill="currentColor" opacity="1.000000" stroke="none" 
	d="
M315.251343,396.089294 
	C318.870697,399.487793 322.326477,402.585938 325.685181,405.786041 
	C328.611298,408.573975 331.043396,411.656616 331.333221,415.968353 
	C331.599792,419.934052 330.397003,423.208832 327.035522,425.424927 
	C323.545410,427.725800 319.761841,428.046814 316.274261,425.654022 
	C314.181946,424.218475 312.792908,424.208649 310.610138,425.559723 
	C306.232086,428.269531 301.479797,427.683502 298.274689,424.347412 
	C294.771912,420.701477 294.447235,416.401825 296.386566,411.894165 
	C297.522247,409.254425 299.506927,407.220398 301.594360,405.293488 
	C304.882935,402.257782 308.219574,399.269836 311.406403,396.130310 
	C312.675812,394.879761 313.683105,394.187958 315.251343,396.089294 
z"/>
<path fill="currentColor" opacity="1.000000" stroke="none" 
	d="
M16.745331,92.806412 
	C14.931903,88.063667 15.736198,84.170067 19.303770,81.177734 
	C22.848480,78.204567 26.885223,77.888519 30.847294,80.383476 
	C32.605934,81.490913 33.930885,81.543762 35.831532,80.567772 
	C40.951546,77.938606 45.481441,78.627754 48.482819,82.092987 
	C51.450645,85.519485 51.506542,91.075752 48.509747,95.503868 
	C44.538704,101.371559 38.174179,104.762115 33.412518,110.552078 
	C28.030886,104.233116 20.510489,100.635849 16.745331,92.806412 
z"/>
</svg>

<svg xmlns="http://www.w3.org/2000/svg" viewBox="0 0 336 496" xml:space="preserve"><path fill="currentColor" d="M219.834 444.572c-11.6-6.003-15.282-17.434-9.576-28.853 1.728-3.457 4.112-6.461 6.747-9.259 8.3-8.815 19.202-14.85 26.328-25.615 6.712 9.839 16.297 15.603 24.129 23.243 4.925 4.803 9.299 9.983 10.883 16.986 2.025 8.952-1.052 17.417-8.087 21.83-7.584 4.759-16.888 3.915-24.052-2.178-.875-.744-1.758-1.48-3.04-2.558-6.375 6.696-13.893 9.608-23.332 6.404zM68.172 421.721c2.037-8.417 7.272-14.178 13.15-19.46 7.394-6.645 15.777-12.237 21.926-21.372 8.61 12.21 21.95 18.772 30.54 30.31 6.543 8.787 7.045 19.713 1.246 27.346-6.253 8.23-18.868 9.843-27.26 3.435-1.555-1.188-2.952-2.584-4.66-4.093-7.264 8.12-15.88 10.679-25.56 5.46-8.316-4.485-10.836-12.13-9.382-21.626zM167.276 360.583c-9.326 4.388-17.912 3.321-23.849-2.71-6.255-6.357-7.522-15.802-3.252-24.555 2.075-4.254 5.235-7.664 8.518-11.012 7.898-8.056 18.053-13.697 24.576-24.145 7.21 10.65 17.662 16.688 25.857 25.136 6.217 6.408 11.06 13.637 9.81 23.036-1.037 7.806-5.35 13.575-13.174 16.047-7.467 2.359-14.11.71-19.89-4.532-.615-.558-1.23-1.115-1.86-1.654-.117-.1-.31-.114-.744-.262a869.723 869.723 0 0 1-5.992 4.65zM138.287 236.16c3.104 12.378-3.625 20.532-11.216 28.017-7.672 7.565-17.069 13.307-23.813 22.825-7.868-11.722-20.423-18-28.88-28.567-4.885-6.104-7.95-12.856-6.332-20.789 2.986-14.634 20.316-20.438 31.755-10.795 1.008.85 2.01 1.706 3.479 2.955 6.59-6.581 14.332-9.591 23.487-6.385 5.91 2.07 9.62 6.377 11.52 12.74zM139.118 169.446c-2.839-10.244-.679-18.222 6.063-23.34 6.279-4.767 15.483-5.301 22.094-1.116 2.074 1.312 3.894 3.026 6.138 4.798 4.537-4.282 9.426-7.537 15.85-7.636 14.05-.218 23.25 12.946 18.567 26.707-1.933 5.677-5.656 10.134-9.79 14.3-7.944 8.002-17.957 13.793-24.779 23.959-6.778-10.718-17.587-16.372-25.609-24.993-3.42-3.675-6.627-7.494-8.534-12.679zM70.547 90.175c-7.197-14.345.294-27.306 12.198-30.076 6.776-1.577 11.592-.04 20.731 7.1 3.881-3.354 7.89-6.942 13.47-7.454 7.281-.667 13.645 1.322 18.112 7.286 4.902 6.543 5.299 13.803 2.066 21.236-2.297 5.28-6.054 9.485-10.13 13.468-7.696 7.522-17.273 13.02-23.602 22.835-7.26-10.796-18.212-16.778-26.425-25.674-2.376-2.574-4.607-5.255-6.42-8.721zM261.269 269.292c-6.48 5.443-13.184 10.133-17.942 17.89-6.961-10.882-17.84-16.665-25.98-25.375-5.345-5.718-9.693-11.904-9.636-20.152.056-8.053 3.585-14.268 10.951-17.55 7.333-3.266 14.574-2.703 21.033 2.64 1.129.933 1.935 2.33 3.817 2.658 3.39-2.278 6.357-5.643 10.766-6.556 7.897-1.634 15.062-.304 20.323 6.167 5.736 7.055 5.82 14.941 1.942 22.923-3.427 7.053-9.183 12.135-15.274 17.355zM251.691 61.234c9.79-3.062 17.799-1.09 23.02 5.402 5.344 6.646 5.862 15.548 1.26 23.893-3.185 5.778-7.83 10.317-12.78 14.578-6.796 5.85-14.22 11.043-19.748 19.323-8.352-12.16-21.675-18.52-30.198-29.908-6.3-8.419-7.354-18.164-2.775-25.697 5.986-9.846 19.559-12.22 28.773-5.012 1.296 1.013 2.51 2.13 3.855 3.278 2.83-1.95 5.534-3.814 8.593-5.857zM21.702 20.8c5.472-5.083 11.75-5.247 18.04-3.67 7.784 1.95 10.073 9.718 5.055 15.98-.708.883-1.435 1.75-2.168 2.644.402.59.589 1.102.954 1.365 4.443 3.203 6.896 7.416 5.423 12.89-1.532 5.692-6.25 7.846-11.564 8.916-3.825.77-7.6.456-11.332-.635-9.462-2.768-11.853-11.897-4.92-18.938.686-.697 1.62-1.15 2.623-1.844-4.164-5.418-6.18-10.609-2.11-16.709m17.604 29.972c1.496-5.575-2.727-7.145-6.388-9.077-3.398-1.794-5.399-.247-6.352 2.984-.918 3.111-.444 6.155 2.494 7.917 3.412 2.044 6.928 2.184 10.246-1.824M29.041 28.275c1.21 1.103 2.316 2.352 3.648 3.279 2.818 1.96 4.738.607 5.733-2.134.89-2.45.663-4.94-1.508-6.79-1.806-1.538-3.947-1.69-6.04-.772-2.592 1.137-3.01 3.266-1.833 6.417zM298.833 463.847c-3.014-8.63-.368-14.2 7.754-16.574 4.548-1.33 9.257-1.3 13.808-.087 4.392 1.17 7.903 3.61 8.819 8.514.886 4.74-.737 8.05-6.189 12.483 2.59 3.556 5.334 7.222 4.114 12.089-.625 2.494-1.903 4.603-4.002 6.159-5.736 4.252-16.918 3.704-21.433-1.05-3.781-3.981-3.136-8.305 2.794-16.404-1.77-1.55-3.626-3.176-5.665-5.13m16.103-12.356c-.827-.04-1.663-.175-2.481-.104-3.011.26-5.285 1.958-5.457 4.851-.227 3.85 2.829 5.687 5.939 7.169 1.95.93 3.927 2.296 5.812.015 2.077-2.514 2.643-5.314 1.057-8.314-.896-1.696-2.394-2.716-4.87-3.617m-5.645 30.95c2.892 2.127 5.956 2.51 8.423-.298 2.028-2.306.809-4.839-1.218-6.537-1.768-1.48-3.839-4.031-6.397-1.974-2.614 2.101-3.834 5.034-.808 8.81zM315.251 396.09c3.62 3.398 7.075 6.496 10.434 9.696 2.926 2.788 5.358 5.87 5.648 10.182.267 3.966-.936 7.24-4.297 9.457-3.49 2.3-7.274 2.622-10.762.229-2.092-1.436-3.481-1.445-5.664-.094-4.378 2.71-9.13 2.124-12.335-1.213-3.503-3.646-3.828-7.945-1.888-12.453 1.135-2.64 3.12-4.674 5.207-6.6 3.289-3.036 6.626-6.024 9.812-9.164 1.27-1.25 2.277-1.942 3.845-.04zM16.745 92.806c-1.813-4.742-1.009-8.636 2.559-11.628 3.544-2.973 7.581-3.29 11.543-.795 1.759 1.108 3.084 1.16 4.985.185 5.12-2.63 9.65-1.94 12.65 1.525 2.969 3.426 3.025 8.983.028 13.41-3.971 5.869-10.336 9.26-15.097 15.05-5.382-6.32-12.903-9.917-16.668-17.747z"/></svg>
